public/static/icons/home.svg

<svg width="34" height="34" viewBox="0 0 34 34" fill="none" xmlns="http://www.w3.org/2000/svg">
<path d="M33.0833 14.7884C33.0825 14.7876 33.0818 14.7868 33.081 14.786L19.2117 0.917236C18.6205 0.325806 17.8345 0 16.9985 0C16.1624 0 15.3765 0.325546 14.785 0.916977L0.922978 14.7788C0.918309 14.7834 0.91364 14.7884 0.90897 14.793C-0.305019 16.014 -0.302944 17.9951 0.914937 19.2129C1.47135 19.7696 2.20623 20.092 2.99195 20.1258C3.02385 20.1289 3.05602 20.1304 3.08844 20.1304H3.64122V30.337C3.64122 32.3567 5.28452 34 7.30472 34H12.7308C13.2808 34 13.7269 33.5541 13.7269 33.0039V25.002C13.7269 24.0803 14.4766 23.3306 15.3982 23.3306H18.5987C19.5204 23.3306 20.27 24.0803 20.27 25.002V33.0039C20.27 33.5541 20.7159 34 21.2661 34H26.6922C28.7124 34 30.3557 32.3567 30.3557 30.337V20.1304H30.8683C31.7041 20.1304 32.4901 19.8049 33.0818 19.2135C34.3009 17.9935 34.3015 16.0091 33.0833 14.7884Z" fill="black" fill-opacity="0.2"/>
</svg>

<svg width="34" height="34" fill="none" xmlns="http://www.w3.org/2000/svg"><path d="m33.083 14.788-.002-.002L19.211.917A3.109 3.109 0 0 0 17 0a3.11 3.11 0 0 0-2.214.917L.923 14.779l-.014.014a3.134 3.134 0 0 0 .006 4.42 3.112 3.112 0 0 0 2.173.917h.553v10.207A3.667 3.667 0 0 0 7.305 34h5.426c.55 0 .996-.446.996-.996v-8.002c0-.922.75-1.671 1.671-1.671h3.2c.922 0 1.672.75 1.672 1.671v8.002c0 .55.446.996.996.996h5.426a3.667 3.667 0 0 0 3.664-3.663V20.13h.512a3.11 3.11 0 0 0 2.214-.916 3.135 3.135 0 0 0 .001-4.426Z" fill="#000" fill-opacity=".2"/></svg>
